icon-themes/breeze_svg/cmd/lc_insertlinebreak.svg

<svg viewBox="0 0 24 24" xmlns="http://www.w3.org/2000/svg"><path d="m4 4v1h16v-1zm0 2v1h9v-1zm0 4v1h10v-1zm0 2v1h4v-1zm0 4v1h10v-1zm0 2v1h7v-1zm8 1v1h2v-1z" fill="#4d4d4d"/><path d="m12 13v1h4 .5c1.385 0 2.5 1.115 2.5 2.5 0 .8187-.395507 1.535134-1 1.990234v-1.490234h-1v1.949219.050781.951172.048828h1 2v-1h-1.076172c.65797-.6319 1.076172-1.5097 1.076172-2.5 0-1.939-1.561-3.5-3.5-3.5z" fill="#1d99f3"/></svg>

<svg viewBox="0 0 24 24" xmlns="http://www.w3.org/2000/svg">
  <path
     style="fill:#4d4d4d"
     d="M 4,4 V 5 H 20 V 4 Z m 0,2 v 1 h 9 V 6 Z m 0,4 v 1 h 10 v -1 z m 0,2 v 1 h 4 v -1 z m 0,4 v 1 h 10 v -1 z m 0,2 v 1 h 7 v -1 z m 8,1 v 1 h 2 v -1 z"
     />
  <path
     style="fill:#1d99f3"
     d="m 12,13 v 1 h 4 0.5 c 1.385,0 2.5,1.115 2.5,2.5 0,0.8187 -0.395507,1.535134 -1,1.990234 V 17 H 17 V 18.949219 19 19.951172 20 h 1 2 V 19 H 18.923828 C 19.581798,18.3681 20,17.4903 20,16.5 20,14.561 18.439,13 16.5,13 Z"
     />
</svg>
